X:1
T:Quite Carried Away, or Joan Transported
C:Pat Shaw 1974
S:David Barnert and Thomas Bending, May 2002
H:was Anon008
M:3/4
L:1/8
R:Waltz
Q:1/4=140
K:G
B2 Bc de | A2 AB cd | G2 GA Bc | B4 A2 |
B2 Bc de | ^c2 de fd | g2 B2 ^c2 | d6 |]
